X: 0251
T: THE LOVER'S WALTZ
B: Oliver Ditson "The Boston Collection of Instrumental Music" 1910 p.25
F: http://conquest.imslp.info/files/imglnks/usimg/8/8f/IMSLP175643-PMLP309456-bostoncollection00bost_bw.pdf
%: 2012 John Chambers <jc:trillian.mit.edu>
M: 3/8
L: 1/16
K: G
% -------------------------
V: 1
"PRIMO"!p!.d2 |\
.B2.c2.d2 | .e2.f2.g2 | d3ed2 | .B2.c2.d2 |\
c3dc2 | .B2.A2.G2 | .A2.B2.c2 | (e2d2).c2 |\
.B2.c2.d2 | .e2.f2.g2 | d3ed2 | .B2.c2.d2 |
.c2(ed).c2 | .B2(dc).B2 | (A2c2).A2 | G4 :|\
|: !ff!(3def |\
g(fgfg)f | g(bagf)g | (dB) (Bd) g2 | (dg) gb b2 |\
a(^gaga)g | a(bc'ba)=g | f(efef)e | g4 :|
|: !p!(Bc) |\
{e}d2.^c2.d2 | {=c}B2.A2.B2 | {a}g2.f2.g2 | .e2(ed).c2 |\
{g}f2.e2.f2 | {e}d2.^c2.d2 | (a2g2).f2 | g4 :|\
|: !p!b2 |\
c'2z2c'2 | b2z2b2 | .a2.b2.c'2 | .b2.c'2.d'2 |
c'2z2c'2 | b2z2b2 | .a2.b2.c'2 | b4 :|\
|: !ff!f2 |\
f4 (ag) | .f2(ag).f2 | .g2(Bd).g2 | (dg) (gb) b2 |\
f4 (ag) | .f2(ag).f2 | d2(eg)(fa) | g4 H:|
% -------------------------
V: 2
"SECONDO"!p!.B2 |\
.G2.A2.B2 | .c2.d2.e2 | B3cB2 | .G2.A2.B2 |\
A3BA2 | .G2.F2.G2 | .F2.G2.A2 | (c2B2).A2 |\
.G2.A2.B2 | .c2.d2.e2 | B3cB2 | .G2.A2.B2 |
.A2(cB).A2 | .G2(BA).G2 | (F2A2)[c2C2] | [B4B,4] :|\
|: !ff!z2 |\
B(dBdB)d | B(dBdB)d | (Bd) (dB) (Bd) | Bd (dg) (gd) |\
c(dcdc)d | c(dedc)B | A(GABc)A | B4 :|
|:!p!(GA) |\
.B2z2.B2 | {A}G2.F2.G2 | {f}e2.^d2.e2 | .c2(cd).e2 |\
{B}A2.G2.A2 | {G}F2.E2.F2 | (c2B2).A2 | B4 :|\
|:!p!.g2 |\
a2z2a2 | g2z2g2 | .f2.g2.a2 | .g2.a2.b2 |
a2z2a2 | g2z2g2 | .f2.g2.a2 | g4 :|\
|: !ff! A2 |\
A4 (cB) | .A2(cB).A2 | B2z2B2 | B2B2d2 |\
A4 (cB) | .A2(cB).A2 | (d2^c2)=c2 | B4 H:|

%%sep 1 1 500
%%sep 1 1 500
